X:1
T:Title
%%score { 1 | ( 2 3 ) }
L:1/8
M:4/4
K:A
V:1 treble nm="Grand Piano"
V:2 bass 
V:3 bass 
V:1
 z4 z2[Q:1/4=100] CD | [A,CE]3 [A,CE] [A,DF]>[A,DF] [DG]>[DG] | [CA]6 [EA]2 | F3 F E2 D2 | %4
[M:3/4] C6 |[M:1/4] CD |[M:4/4] [CE]3 [CE] F>F G>G | A6 B2 | c3 c [Ad]2 [A^d]2 |[M:3/4] [Ge]6 | %10
[M:1/4] [Ge]2 |[M:4/4] e3 d c2 B2 | A2 [EG]2 [DF]3 [DF] | [CE]2 [EA]2 [DB]2 [Fd]2 | c4 B4 | %15
[M:3/4] [CA]6 |] %16
V:2
 z4 z2 A,B, | A,,3 A,, B,,>B,, E,>E, | [A,,E,]6 [C,A,]2 | [D,A,D]3 [D,A,D] [E,A,C]2 [E,B,]2 | %4
[M:3/4] [A,,E,A,]6 |[M:1/4] A,B, |[M:4/4] [A,,A,]3 [A,,A,] [D,A,D]>[D,A,D] [E,D]>[E,B,D] | %7
 [F,A,C]6 [E,G,E]2 | [A,E]3 [A,E] [F,A,]2 [B,,B,]2 |[M:3/4] [E,B,]6 |[M:1/4] [E,D]2 | %11
[M:4/4][K:treble] [A,CA]3 [G,B,E][K:bass] [A,E]2 [E,G,D]2 | [F,A,C]2 [C,A,]2 [D,A,]3 [D,A,] | %13
 [A,,A,]2 [C,A,]2 [D,F,]2 [B,,B,]2 | [E,A,E]4 [E,D]4 |[M:3/4] [A,,E,]6 |] %16
V:3
 z4 z2 [A,,E,]2 | x8 | x8 | x8 |[M:3/4] x6 |[M:1/4] [A,,E,]2 |[M:4/4] x8 | x8 | x8 |[M:3/4] x6 | %10
[M:1/4] x2 |[M:4/4][K:treble] x4[K:bass] x4 | x8 | x8 | x8 |[M:3/4] x6 |] %16

